svgs/sharp-light/keyboard.svg

<svg xmlns="http://www.w3.org/2000/svg" viewBox="0 0 576 512"><!--! Font Awesome Pro 6.6.0 by @fontawesome - https://fontawesome.com License - https://fontawesome.com/license (Commercial License) Copyright 2024 Fonticons, Inc. --><path d="M32 96l0 320 512 0 0-320L32 96zM0 64l32 0 512 0 32 0 0 32 0 320 0 32-32 0L32 448 0 448l0-32L0 96 0 64zm120 72l0 48-48 0 0-48 48 0zM72 232l48 0 0 48-48 0 0-48zm48 96l0 48-48 0 0-48 48 0zm48-192l48 0 0 48-48 0 0-48zm48 96l0 48-48 0 0-48 48 0zm48-96l48 0 0 48-48 0 0-48zm48 96l0 48-48 0 0-48 48 0zm48-96l48 0 0 48-48 0 0-48zm48 96l0 48-48 0 0-48 48 0zm48-96l48 0 0 48-48 0 0-48zm48 96l0 48-48 0 0-48 48 0zm-48 96l48 0 0 48-48 0 0-48zm-56 8l16 0 0 32-16 0-224 0-16 0 0-32 16 0 224 0z"/></svg>

<svg xmlns="http://www.w3.org/2000/svg" viewBox="0 0 576 512"><!--! Font Awesome Pro 6.4.0 by @fontawesome - https://fontawesome.com License - https://fontawesome.com/license (Commercial License) Copyright 2023 Fonticons, Inc. --><path d="M32 96V416H544V96H32zM0 64H32 544h32V96 416v32H544 32 0V416 96 64zm120 72v48H72V136h48zM72 232h48v48H72V232zm48 96v48H72V328h48zm48-192h48v48H168V136zm48 96v48H168V232h48zm48-96h48v48H264V136zm48 96v48H264V232h48zm48-96h48v48H360V136zm48 96v48H360V232h48zm48-96h48v48H456V136zm48 96v48H456V232h48zm-48 96h48v48H456V328zm-56 8h16v32H400 176 160V336h16H400z"/></svg>
